build/images/design.svg

<?xml version="1.0" encoding="UTF-8" standalone="no"?>
<svg width="299px" height="287px" viewBox="0 0 299 287" version="1.1" xmlns="http://www.w3.org/2000/svg" xmlns:xlink="http://www.w3.org/1999/xlink">
    <!-- Generator: Sketch 3.8.3 (29802) - http://www.bohemiancoding.com/sketch -->
    <title>Group 21</title>
    <desc>Created with Sketch.</desc>
    <defs></defs>
    <g id="Homepage" stroke="none" stroke-width="1" fill="none" fill-rule="evenodd">
        <g transform="translate(-187.000000, -4754.000000)" id="Service">
            <g transform="translate(189.000000, 4511.000000)">
                <g id="UI/UX" transform="translate(0.000000, 245.000000)">
                    <g id="Group-21">
                        <g id="Group-20">
                            <g id="Group-18">
                                <path d="M89.6560487,200.104905 L29.3700849,200.104905" id="Line" stroke="#F1494C" stroke-width="3" stroke-linecap="square"></path>
                                <path d="M89.6560487,214.756131 L29.3700849,214.756131" id="Line" stroke="#F1494C" stroke-width="3" stroke-linecap="square"></path>
                                <path d="M89.6560487,229.407357 L29.3700849,229.407357" id="Line" stroke="#ECECEC" stroke-width="3" stroke-linecap="square"></path>
                                <path d="M89.6560487,244.8297 L29.3700849,244.8297" id="Line" stroke="#ECECEC" stroke-width="3" stroke-linecap="square"></path>
                                <path d="M26.6649455,88.2929155 L167.32447,88.2929155" id="Line" stroke="#afafaf" stroke-width="3" stroke-linecap="square"></path>
                                <path d="M27.051394,179.6703 L167.710918,179.6703" id="Line" stroke="#afafaf" stroke-width="3" stroke-linecap="square"></path>
                                <path d="M26.6649455,88.2929155 L26.6649455,179.513178" id="Line" stroke="#afafaf" stroke-width="3" stroke-linecap="square"></path>
                                <path d="M167.332194,88.2929155 L167.332194,179.513178" id="Line" stroke="#afafaf" stroke-width="3" stroke-linecap="square"></path>
                                <path d="M110.137818,196.249319 L110.137818,272.187722" id="Line" stroke="#afafaf" stroke-width="3" stroke-linecap="square"></path>
                                <path d="M167.332194,196.249319 L167.332194,272.187722" id="Line" stroke="#afafaf" stroke-width="3" stroke-linecap="square"></path>
                                <path d="M110.137818,196.249319 L167.587517,196.249319" id="Line" stroke="#afafaf" stroke-width="3" stroke-linecap="square"></path>
                                <path d="M27.051394,87.9073569 L165.900515,177.989305" id="Line" stroke="#ECECEC" stroke-width="3" stroke-linecap="square"></path>
                                <path d="M29.3700849,88.6784741 L166.172849,178.128065" id="Line" stroke="#ECECEC" stroke-width="3" stroke-linecap="square" transform="translate(97.771467, 133.403270) scale(-1, 1) translate(-97.771467, -133.403270) "></path>
                                <path d="M9.66121214,68.2438692 L175.512453,68.2438692" id="Line" stroke="#ECECEC" stroke-width="3" stroke-linecap="square"></path>
                                <path d="M0.386448486,48.5803815 L197.081133,48.5803815" id="Line" stroke="#afafaf" stroke-width="3" stroke-linecap="square"></path>
                                <path d="M8.88831517,282.614441 L8.88831517,37.7716871" id="Line" stroke="#afafaf" stroke-width="3" stroke-linecap="square"></path>
                                <path d="M186.654619,282.614441 L186.654619,38.0487027" id="Line" stroke="#ECECEC" stroke-width="3" stroke-linecap="square"></path>
                                <path d="M0.27517314,272.975477 L194.263971,272.975477" id="Line" stroke="#afafaf" stroke-width="3" stroke-linecap="square"></path>
                                <ellipse id="Oval-17" fill="#FFFFFF" cx="167.718643" cy="56.2915531" rx="56.4214789" ry="56.2915531"></ellipse>
                            </g>
                        </g>
                        <g id="Group-7" transform="translate(17.776630, 0.000000)">
                            <path d="M0.772896972,58.6049046 L0.772896972,58.6049046" id="Line" stroke="#F1494C" stroke-width="5" stroke-linecap="round"></path>
                            <path d="M8.50186669,58.6049046 L8.50186669,58.6049046" id="Line" stroke="#F1494C" stroke-width="5" stroke-linecap="round"></path>
                            <path d="M16.2308364,58.6049046 L16.2308364,58.6049046" id="Line" stroke="#F1494C" stroke-width="5" stroke-linecap="round"></path>
                            <path d="M250.055946,40.9215464 C250.055946,40.9215464 255.089966,44.2067013 256.288183,45.3731666" id="Path-1208" stroke="#afafaf" stroke-width="3" stroke-linecap="round"></path>
                            <path d="M262.027924,50.7939546 C262.027924,50.7939546 265.430859,54.4612794 266.835132,56.332594" id="Path-1209" stroke="#afafaf" stroke-width="3" stroke-linecap="round"></path>
                            <path d="M271.068328,63.1088614 C271.068328,63.1088614 273.062085,67.3556537 273.995373,69.9438663" id="Path-1210" stroke="#afafaf" stroke-width="3" stroke-linecap="round"></path>
                            <path d="M276.182354,77.8056468 C276.182354,77.8056468 276.969215,79.9838268 277.460955,85.2024225" id="Path-1211" stroke="#afafaf" stroke-width="3" stroke-linecap="round"></path>
                            <path d="M277.519451,93.0950778 C277.519451,93.0950778 277.039787,97.2665656 276.312554,100.404124" id="Path-1212" stroke="#afafaf" stroke-width="3" stroke-linecap="round"></path>
                            <path d="M274.432769,108.19173 C274.432769,108.19173 272.237485,113.415973 271.409112,114.989082" id="Path-1213" stroke="#afafaf" stroke-width="3" stroke-linecap="round"></path>
                            <path d="M267.304229,121.65164 C267.304229,121.65164 264.006963,126.21697 262.564574,127.517477" id="Path-1214" stroke="#afafaf" stroke-width="3" stroke-linecap="round"></path>
                            <path d="M256.647081,133.090003 C256.647081,133.090003 252.264439,136.576974 250.586558,137.550284" id="Path-1215" stroke="#afafaf" stroke-width="3" stroke-linecap="round"></path>
                            <path d="M243.29272,141.160001 C243.29272,141.160001 239.179534,143.044117 236.496284,143.778335" id="Path-1216" stroke="#afafaf" stroke-width="3" stroke-linecap="round"></path>
                            <path d="M228.854114,145.2046 C228.854114,145.2046 226.179921,145.712529 221.238362,145.712529" id="Path-1217" stroke="#afafaf" stroke-width="3" stroke-linecap="round"></path>
                            <path d="M171.533689,116.4963 C171.533689,116.4963 174.700378,122.126811 175.465727,122.856887" id="Path-1218" stroke="#afafaf" stroke-width="3" stroke-linecap="round"></path>
                            <path d="M180.698255,128.881993 C180.698255,128.881993 184.984286,132.948055 186.279114,133.946591" id="Path-1219" stroke="#afafaf" stroke-width="3" stroke-linecap="round"></path>
                            <path d="M193.04536,138.246849 C193.04536,138.246849 196.590949,140.260489 199.719144,141.766954" id="Path-1220" stroke="#afafaf" stroke-width="3" stroke-linecap="round"></path>
                            <path d="M207.48623,144.171047 C207.48623,144.171047 209.6951,145.404534 214.900455,145.404534" id="Path-1221" stroke="#afafaf" stroke-width="3" stroke-linecap="round"></path>
                            <path d="M228.075934,33.5458559 C228.075934,33.5458559 224.070682,32.5972625 220.382816,33.2927559" id="Path-1222" stroke="#afafaf" stroke-width="3" stroke-linecap="round"></path>
                            <path d="M235.862644,34.9126309 C235.862644,34.9126309 241.469544,36.7383864 242.915329,37.5938445" id="Path-1208" stroke="#afafaf" stroke-width="3" stroke-linecap="round"></path>
                            <path d="M212.442507,33.667849 C212.442507,33.667849 207.45,34.6121663 205.376991,35.3170156" id="Path-1223" stroke="#afafaf" stroke-width="3" stroke-linecap="round"></path>
                            <path d="M168.587296,110.207932 C190.585772,102.52608 206.363491,81.6326739 206.363491,57.0626703 C206.363491,49.7314593 204.958786,42.7275792 202.403257,36.3043273 C180.404778,43.9861776 164.627055,64.8795851 164.627055,89.4495913 C164.627055,96.7808023 166.03176,103.784682 168.587289,110.207934 Z" id="Combined-Shape" stroke="#afafaf" stroke-width="3"></path>
                            <path d="M190.519103,42.0258856 L206.592759,58.0625276" id="Line" stroke="#afafaf" stroke-width="3" stroke-linecap="square"></path>
                            <path d="M191.292,42.7970027 L205.654565,57.1264931" id="Line" stroke="#afafaf" stroke-width="3" stroke-linecap="square"></path>
                            <path d="M182.790134,48.9659401 L204.445046,70.5709858" id="Line" stroke="#afafaf" stroke-width="3" stroke-linecap="square"></path>
                            <path d="M175.834061,56.6771117 L199.793867,80.5817439" id="Line" stroke="#afafaf" stroke-width="3" stroke-linecap="square"></path>
                            <path d="M170.423782,66.7016349 L194.773103,90.9948849" id="Line" stroke="#afafaf" stroke-width="3" stroke-linecap="square"></path>
                            <path d="M166.941803,79.4211343 L185.881722,98.3174387" id="Line" stroke="#afafaf" stroke-width="3" stroke-linecap="square"></path>
                            <path d="M165.013503,92.9196185 L177.049372,104.927772" id="Line" stroke="#afafaf" stroke-width="3" stroke-linecap="square"></path>
                            <ellipse id="Oval-17" stroke="#F1494C" stroke-width="4" cx="149.942012" cy="56.2915531" rx="56.4214789" ry="56.2915531"></ellipse>
                        </g>
                    </g>
                </g>
            </g>
        </g>
    </g>
</svg>

<svg width="299" height="287" xmlns="http://www.w3.org/2000/svg"><g fill="none" fill-rule="evenodd"><g transform="translate(2 2)"><path d="M89.656 200.105H29.37m60.286 14.651H29.37" stroke="#F1494C" stroke-width="3" stroke-linecap="square"/><path d="M89.656 229.407H29.37m60.286 15.423H29.37" stroke="#ECECEC" stroke-width="3" stroke-linecap="square"/><path d="M26.665 88.293h140.66M27.051 179.67h140.66M26.665 88.293v91.22m140.667-91.22v91.22m-57.194 16.737v75.938m57.194-75.938v75.938m-57.194-75.938h57.45" stroke="#afafaf" stroke-width="3" stroke-linecap="square"/><path d="M27.051 87.907l138.85 90.082m.272-89.311L29.37 178.128M9.661 68.244h165.851" stroke="#ECECEC" stroke-width="3" stroke-linecap="square"/><path d="M.386 48.58h196.695M8.888 282.614V37.772" stroke="#afafaf" stroke-width="3" stroke-linecap="square"/><path d="M186.655 282.614V38.05" stroke="#ECECEC" stroke-width="3" stroke-linecap="square"/><path d="M.275 272.975h193.989" stroke="#afafaf" stroke-width="3" stroke-linecap="square"/><ellipse fill="#FFF" cx="167.719" cy="56.292" rx="56.421" ry="56.292"/></g><g transform="translate(19.777 2)"><path d="M250.056 40.922s5.034 3.285 6.232 4.451m5.74 5.421s3.403 3.667 4.807 5.539m4.233 6.776s1.994 4.247 2.927 6.835m2.187 7.862s.787 2.178 1.279 7.396m.059 7.893s-.48 4.172-1.207 7.31m-1.88 7.787s-2.196 5.224-3.024 6.797m-4.105 6.663s-3.297 4.565-4.74 5.865m-5.917 5.573s-4.383 3.487-6.06 4.46m-7.294 3.61s-4.113 1.884-6.797 2.618m-7.642 1.427s-2.674.508-7.616.508m-49.704-29.217s3.166 5.63 3.932 6.36m5.232 6.026s4.286 4.066 5.581 5.065m6.766 4.3s3.546 2.013 6.674 3.52m7.767 2.404s2.21 1.234 7.414 1.234m13.176-111.859s-4.005-.949-7.693-.253m15.48 1.62s5.607 1.825 7.052 2.68m-30.472-3.925s-4.993.944-7.066 1.649" stroke="#afafaf" stroke-width="3" stroke-linecap="round"/><path d="M168.587 110.208c21.999-7.682 37.776-28.575 37.776-53.145a56.029 56.029 0 0 0-3.96-20.759c-21.998 7.682-37.776 28.576-37.776 53.146a56.029 56.029 0 0 0 3.96 20.758z" stroke="#afafaf" stroke-width="3"/><path d="M190.52 42.026l16.073 16.037m-15.301-15.266l14.363 14.33m-22.865-8.161l21.655 21.605m-28.611-13.894l23.96 23.905m-29.37-13.88l24.35 24.293m-27.832-11.574l18.94 18.896m-20.868-5.397l12.035 12.008" stroke="#afafaf" stroke-width="3" stroke-linecap="square"/><ellipse stroke="#F1494C" stroke-width="4" cx="149.942" cy="56.292" rx="56.421" ry="56.292"/></g></g></svg>
